X:1
T:Belle, qui tiens ma vie
T:Belle, qui tiens ma vie
T:Pavane
T:Thoinot Arbeau
C:Thoinot Arbeau
%%score 1 2 3 4
L:1/8
Q:1/4=60
M:2/2
K:F
V:1 treble 
V:2 treble 
V:3 treble 
V:4 treble 
V:1
 G8 | G4 ^F4 | G4 A4 | B8 | B4 d4 | c4 B4 | B4 A4 | B8 | G8 | G4 ^F4 | G4 A4 | B8 | B4 d4 | c4 B4 | %14
w: Bel-|le qui|tiens ma|vi-|e Cap-|ti- ve|dans tes|yeulx.|Qui|mºas lº^a-|me ra-|vi-|e Dºun|sou- ris|
 B4 A4 | B8 | B8 | A4 A4 | G4 G4 | ^F8 | D8 | E2 F2 G4 | G4 ^F4 | G8 | B8 | A4 A4 | G4 G4 | ^F8 | %28
w: gra- ci-|eux,|viens|t^ot me|se- cou-|rir|Ou|me * faud-|ra mou-|rir.|Viens|t^ot me|se- cou-|rir|
 D8 | E2 F2 G4 | G4 ^F4 | G8 |] %32
w: viens|t^ot me se-|cou- rir||
V:2
 D8 | D4 D4 | D4 F4 | F8 | F4 F4 | E4 F4 | G4 F4 | F8 | D8 | D4 D4 | D4 F4 | F8 | F4 F4 | E4 F4 | %14
w: Bel-|le qui|tiens ma|vi-|e Cap-|ti- ve|dans tes|yeulx.|Qui|mºas lº^a-|me ra-|vi-|e Dºun|sou- ris|
 G4 F4 | F8 | F8 | F4 F4 | D4 _E4 | D8 | F8 | C4 D4 | D4 D4 | =B,8 | B,8 | F4 F4 | D4 _E4 | D8 | %28
w: gra- ci-|eux,|viens|t^ot me|se- cou-|rir|Ou|me faud-|ra mou-|rir.|Viens|t^ot me|se- cou-|rir|
 F8 | E4 D4 | D4 D4 | D8 |] %32
w: viens|t^ot me|se- cou-|rir|
V:3
 B,8 | B,4 A,4 | B,4 C4 | D8 | D4 B,4 | C4 C4 | D8 | B,8 | B,8 | B,4 A,4 | B,4 C4 | D8 | D4 B,4 | %13
w: Bel-|le qui|tiens ma|vi-|e Cap-|ti- ve|dans|tes|Qui|mºas lº^a-|me ra-|vi-|e Dºun|
 C4 C4 | D8 | B,8 | D8 | C4 D4 | B,4 C4 | A,8 | B,8 | G,4 B,4 | A,4 A,4 | G,8 | D8 | C4 D4 | %26
w: sou- ris|gra-|ci-|viens|t^ot me|se- cou-|rir|Ou|me faud-|ra mou-|rir.|Viens|t^ot me|
 B,4 C4 | A,8 | B,8 | G,4 B,4 | A,4 A,4 | G,8 |] %32
w: se- cou-|rir|viens|t^ot me|se- cou-|rir|
V:4
 G,8 | G,4 D,4 | G,4 F,4 | B,,8 | B,,4 B,,4 | C,4 D,4 | _E,4 F,4 | B,,8 | G,8 | G,4 D,4 | G,4 F,4 | %11
w: Bel-|le qui|tiens ma|vi-|e Cap-|ti- ve|dans tes|yeulx.|Qui|mºas lº^a-|me ra-|
 B,,8 | B,,4 B,,4 | C,4 D,4 | _E,4 F,4 | B,,8 | B,8 | F,4 D,4 | G,4 C,4 | D,8 | B,,8 | C,4 G,,4 | %22
w: vi-|e Dºun|sou- ris|gra- ci-|eux,|viens|t^ot me|se- cou-|rir|Ou|me faud-|
 D,4 D,4 | G,,8 | G,8 | F,4 D,4 | G,4 C,4 | D,8 | B,,8 | C,4 G,,4 | D,4 D,4 | G,,8 |] %32
w: ra mou-|rir.|Viens|t^ot me|se- cou-|rir|viens|t^ot me|se- cou-|rir|

